svgs/thin/keyboard-left.svg

<svg xmlns="http://www.w3.org/2000/svg" viewBox="0 0 640 512"><!-- Font Awesome Pro 6.0.0-alpha2 by @fontawesome - https://fontawesome.com License - https://fontawesome.com/license (Commercial License) --><path d="M344.001 288H360.001C373.257 288 384.001 277.254 384.001 264V248C384.001 234.746 373.257 224 360.001 224H344.001C330.747 224 320.001 234.746 320.001 248V264C320.001 277.254 330.747 288 344.001 288ZM336.001 248C336.001 243.59 339.591 240 344.001 240H360.001C364.413 240 368.001 243.59 368.001 248V264C368.001 268.41 364.413 272 360.001 272H344.001C339.591 272 336.001 268.41 336.001 264V248ZM264.001 320H248.001C234.747 320 224.001 330.746 224.001 344V360C224.001 373.254 234.747 384 248.001 384H264.001C277.257 384 288.001 373.254 288.001 360V344C288.001 330.746 277.257 320 264.001 320ZM272.001 360C272.001 364.41 268.413 368 264.001 368H248.001C243.591 368 240.001 364.41 240.001 360V344C240.001 339.59 243.591 336 248.001 336H264.001C268.413 336 272.001 339.59 272.001 344V360ZM344.001 192H360.001C373.257 192 384.001 181.254 384.001 168V152C384.001 138.746 373.257 128 360.001 128H344.001C330.747 128 320.001 138.746 320.001 152V168C320.001 181.254 330.747 192 344.001 192ZM336.001 152C336.001 147.59 339.591 144 344.001 144H360.001C364.413 144 368.001 147.59 368.001 152V168C368.001 172.41 364.413 176 360.001 176H344.001C339.591 176 336.001 172.41 336.001 168V152ZM456.001 224H440.001C426.747 224 416.001 234.746 416.001 248V264C416.001 277.254 426.747 288 440.001 288H456.001C469.257 288 480.001 277.254 480.001 264V248C480.001 234.746 469.257 224 456.001 224ZM464.001 264C464.001 268.41 460.413 272 456.001 272H440.001C435.591 272 432.001 268.41 432.001 264V248C432.001 243.59 435.591 240 440.001 240H456.001C460.413 240 464.001 243.59 464.001 248V264ZM552.001 320H536.001C522.747 320 512.001 330.746 512.001 344V360C512.001 373.254 522.747 384 536.001 384H552.001C565.257 384 576.001 373.254 576.001 360V344C576.001 330.746 565.257 320 552.001 320ZM560.001 360C560.001 364.41 556.413 368 552.001 368H536.001C531.591 368 528.001 364.41 528.001 360V344C528.001 339.59 531.591 336 536.001 336H552.001C556.413 336 560.001 339.59 560.001 344V360ZM552.001 224H536.001C522.747 224 512.001 234.746 512.001 248V264C512.001 277.254 522.747 288 536.001 288H552.001C565.257 288 576.001 277.254 576.001 264V248C576.001 234.746 565.257 224 552.001 224ZM560.001 264C560.001 268.41 556.413 272 552.001 272H536.001C531.591 272 528.001 268.41 528.001 264V248C528.001 243.59 531.591 240 536.001 240H552.001C556.413 240 560.001 243.59 560.001 248V264ZM552.001 128H536.001C522.747 128 512.001 138.746 512.001 152V168C512.001 181.254 522.747 192 536.001 192H552.001C565.257 192 576.001 181.254 576.001 168V152C576.001 138.746 565.257 128 552.001 128ZM560.001 168C560.001 172.41 556.413 176 552.001 176H536.001C531.591 176 528.001 172.41 528.001 168V152C528.001 147.59 531.591 144 536.001 144H552.001C556.413 144 560.001 147.59 560.001 152V168ZM576.001 64H224.001C188.655 64 160.001 92.652 160.001 128V384C160.001 419.348 188.655 448 224.001 448H576.001C611.349 448 640.001 419.348 640.001 384V128C640.001 92.652 611.349 64 576.001 64ZM624.001 384C624.001 410.469 602.468 432 576.001 432H224.001C197.534 432 176.001 410.469 176.001 384V128C176.001 101.531 197.534 80 224.001 80H576.001C602.468 80 624.001 101.531 624.001 128V384ZM264.001 128H248.001C234.747 128 224.001 138.746 224.001 152V168C224.001 181.254 234.747 192 248.001 192H264.001C277.257 192 288.001 181.254 288.001 168V152C288.001 138.746 277.257 128 264.001 128ZM272.001 168C272.001 172.41 268.413 176 264.001 176H248.001C243.591 176 240.001 172.41 240.001 168V152C240.001 147.59 243.591 144 248.001 144H264.001C268.413 144 272.001 147.59 272.001 152V168ZM264.001 224H248.001C234.747 224 224.001 234.746 224.001 248V264C224.001 277.254 234.747 288 248.001 288H264.001C277.257 288 288.001 277.254 288.001 264V248C288.001 234.746 277.257 224 264.001 224ZM272.001 264C272.001 268.41 268.413 272 264.001 272H248.001C243.591 272 240.001 268.41 240.001 264V248C240.001 243.59 243.591 240 248.001 240H264.001C268.413 240 272.001 243.59 272.001 248V264ZM456.001 320H344.001C330.747 320 320.001 330.746 320.001 344V360C320.001 373.254 330.747 384 344.001 384H456.001C469.257 384 480.001 373.254 480.001 360V344C480.001 330.746 469.257 320 456.001 320ZM464.001 360C464.001 364.41 460.413 368 456.001 368H344.001C339.591 368 336.001 364.41 336.001 360V344C336.001 339.59 339.591 336 344.001 336H456.001C460.413 336 464.001 339.59 464.001 344V360ZM456.001 128H440.001C426.747 128 416.001 138.746 416.001 152V168C416.001 181.254 426.747 192 440.001 192H456.001C469.257 192 480.001 181.254 480.001 168V152C480.001 138.746 469.257 128 456.001 128ZM464.001 168C464.001 172.41 460.413 176 456.001 176H440.001C435.591 176 432.001 172.41 432.001 168V152C432.001 147.59 435.591 144 440.001 144H456.001C460.413 144 464.001 147.59 464.001 152V168ZM116.474 155.201C114.005 154.125 111.394 153.602 108.802 153.602C104.044 153.602 99.354 155.365 95.739 158.725L6.138 241.926C2.056 245.715 0.01 250.836 0 255.961C-0.01 261.112 2.035 266.267 6.138 270.076L95.739 353.275C99.356 356.635 104.048 358.4 108.806 358.4C111.396 358.4 114.007 357.877 116.474 356.803C123.474 353.752 128.001 346.838 128.001 339.199V172.801C128.001 165.162 123.474 158.25 116.474 155.201ZM112.001 339.199C112.001 340.475 111.247 341.627 108.806 342.4C108.333 342.4 107.423 342.289 106.626 341.551L17.026 258.352C16.179 257.564 15.999 256.639 15.999 256S16.179 254.436 17.024 253.65L106.628 170.447C107.421 169.711 108.329 169.602 108.802 169.602L110.085 169.869C111.249 170.377 112.001 171.527 112.001 172.801V339.199Z"/></svg>

<svg xmlns="http://www.w3.org/2000/svg" viewBox="0 0 640 512"><!--! Font Awesome Pro 6.3.0 by @fontawesome - https://fontawesome.com License - https://fontawesome.com/license (Commercial License) Copyright 2023 Fonticons, Inc. --><path d="M344 288h16C373.3 288 384 277.3 384 264v-16C384 234.7 373.3 224 360 224h-16C330.7 224 320 234.7 320 248v16C320 277.3 330.7 288 344 288zM336 248c0-4.41 3.59-8 8-8h16c4.412 0 8 3.59 8 8v16c0 4.41-3.588 8-8 8h-16c-4.41 0-8-3.59-8-8V248zM264 320h-16C234.7 320 224 330.7 224 344v16C224 373.3 234.7 384 248 384h16C277.3 384 288 373.3 288 360v-16C288 330.7 277.3 320 264 320zM272 360c0 4.41-3.588 8-8 8h-16c-4.41 0-8-3.59-8-8v-16c0-4.41 3.59-8 8-8h16c4.412 0 8 3.59 8 8V360zM344 192h16C373.3 192 384 181.3 384 168v-16C384 138.7 373.3 128 360 128h-16C330.7 128 320 138.7 320 152v16C320 181.3 330.7 192 344 192zM336 152c0-4.41 3.59-8 8-8h16c4.412 0 8 3.59 8 8v16c0 4.41-3.588 8-8 8h-16c-4.41 0-8-3.59-8-8V152zM456 224h-16C426.7 224 416 234.7 416 248v16C416 277.3 426.7 288 440 288h16C469.3 288 480 277.3 480 264v-16C480 234.7 469.3 224 456 224zM464 264c0 4.41-3.588 8-8 8h-16c-4.41 0-8-3.59-8-8v-16c0-4.41 3.59-8 8-8h16c4.412 0 8 3.59 8 8V264zM552 320h-16C522.7 320 512 330.7 512 344v16c0 13.25 10.75 24 24 24h16c13.26 0 24-10.75 24-24v-16C576 330.7 565.3 320 552 320zM560 360c0 4.41-3.588 8-8 8h-16c-4.41 0-8-3.59-8-8v-16c0-4.41 3.59-8 8-8h16c4.412 0 8 3.59 8 8V360zM552 224h-16C522.7 224 512 234.7 512 248v16C512 277.3 522.7 288 536 288h16C565.3 288 576 277.3 576 264v-16C576 234.7 565.3 224 552 224zM560 264c0 4.41-3.588 8-8 8h-16c-4.41 0-8-3.59-8-8v-16c0-4.41 3.59-8 8-8h16c4.412 0 8 3.59 8 8V264zM552 128h-16C522.7 128 512 138.7 512 152v16C512 181.3 522.7 192 536 192h16C565.3 192 576 181.3 576 168v-16C576 138.7 565.3 128 552 128zM560 168c0 4.41-3.588 8-8 8h-16c-4.41 0-8-3.59-8-8v-16c0-4.41 3.59-8 8-8h16c4.412 0 8 3.59 8 8V168zM575.1 64h-352c-35.35 0-64 28.65-64 64v256c0 35.35 28.65 64 64 64h352c35.35 0 64-28.65 64-64V128C639.1 92.65 611.3 64 575.1 64zM624 384c0 26.47-21.53 48-48 48H224c-26.47 0-48-21.53-48-48V128c0-26.47 21.53-48 48-48h352c26.47 0 48 21.53 48 48V384zM264 128h-16C234.7 128 224 138.7 224 152v16C224 181.3 234.7 192 248 192h16C277.3 192 288 181.3 288 168v-16C288 138.7 277.3 128 264 128zM272 168c0 4.41-3.588 8-8 8h-16C243.6 176 240 172.4 240 168v-16c0-4.41 3.59-8 8-8h16c4.412 0 8 3.59 8 8V168zM264 224h-16C234.7 224 224 234.7 224 248v16C224 277.3 234.7 288 248 288h16C277.3 288 288 277.3 288 264v-16C288 234.7 277.3 224 264 224zM272 264c0 4.41-3.588 8-8 8h-16C243.6 272 240 268.4 240 264v-16c0-4.41 3.59-8 8-8h16c4.412 0 8 3.59 8 8V264zM456 320h-112C330.7 320 320 330.7 320 344v16c0 13.25 10.75 24 24 24h112c13.26 0 24-10.75 24-24v-16C480 330.7 469.3 320 456 320zM464 360c0 4.41-3.588 8-8 8h-112c-4.41 0-8-3.59-8-8v-16c0-4.41 3.59-8 8-8h112c4.412 0 8 3.59 8 8V360zM456 128h-16C426.7 128 416 138.7 416 152v16C416 181.3 426.7 192 440 192h16C469.3 192 480 181.3 480 168v-16C480 138.7 469.3 128 456 128zM464 168c0 4.41-3.588 8-8 8h-16c-4.41 0-8-3.59-8-8v-16c0-4.41 3.59-8 8-8h16c4.412 0 8 3.59 8 8V168zM116.5 155.2c-2.469-1.076-5.081-1.6-7.673-1.6c-4.758 0-9.448 1.764-13.06 5.123L6.138 241.9C2.056 245.7 .0106 250.9 .0002 255.1c-.0105 5.151 2.035 10.27 6.137 14.08L95.74 353.3c3.617 3.359 8.309 5.125 13.07 5.125c2.59 0 5.202-.5234 7.669-1.598c7-3.051 11.53-9.965 11.53-17.6V172.8C127.1 165.2 123.5 158.3 116.5 155.2zM112 339.2c0 1.275-.7539 2.428-3.195 3.201c-.4727 0-1.383-.1113-2.18-.8496L17.03 258.4C16.18 257.6 15.1 256.6 15.1 256s.1797-1.564 1.025-2.35l89.6-83.2c.793-.7363 1.701-.8457 2.174-.8457l1.283 .2676C111.2 170.4 112 171.5 112 172.8V339.2z"/></svg>
